!!!!SEGMENT: pl-kozmzk--mzk-m-31--008_szymanowska-maria--preludium-es-dur.krn
!!!cenid: 18xx:444
!!!COM: Szymanowska, Maria
!!!COM-rismID: pe140138
!!!CDT: 1789/12/14-1831/07/25
!!!CNT: Polish
!!!GTL: Vingt Exercices et Préludes pour le Pianoforte
!!!OTL: Preludium Es-dur
!!!PDT: 1819
!!!AGN: Secular; Prelude
!!!SMS-siglum: PL-KOZmzk
!!!SMS-shelfmark: mzk/m/31
!!!SMS-shelfwork: 008 G
!!!SMS-variant:
!!!SMS-altvar:
!!!NIFC-rismSourceID: 1001025331
!!!NIFC-islandoraID: pl-kozmzk:6325
!!!URL-pdf-islandora: https://repozytorium.nifc.pl/islandora/object/pl-kozmzk%3A6325/datastream/PDF/view
!!!URL-scan: https://polish.musicsources.pl/pl/lokalizacje/galeria/rekopisy/462 @EN{Scan on Polish Music Sources Website} @PL{Skany w portalu Dziedzictwo Muzyki Polskiej w otwartym dostępie}
!!!ONB-nifc:
!!!AIN: 1 piano
!!!key:
**kern	**fing	**kern	**fing	**dynam
*part1	*	*part1	*	*part1
*staff2	*	*staff1	*	*
*Ipiano	*	*Iempty	*	*
*I"Piano	*	*	*	*
*I'Pno.	*	*	*	*
*clefF4	*	*clefG2	*	*
*k[b-e-a-]	*	*k[b-e-a-]	*	*
*E-:	*	*E-:	*	*
*M4/4	*	*M4/4	*	*
=1	=1	=1	=1	=1
*^	*	*	*	*
!	!	!	!LO:TX:a:t=problem:3 pod klamrą łukową	!	!
!	!	!	!LO:TX:a:t=Con brio	!	!
!	!	!	!LO:TUP:b	!	!
4r	1E-	5	12e-/L	2	p
.	.	.	12g/	1	.
.	.	.	12b-/J	2	.
*	*	*	*Xtuplet	*	*
!	!	!	!LO:TX:a:t=problem&colon; brak oznaczeń trioli &colon; global	!	!
8.G/L	.	3	12bb-\L	5	.
.	.	.	12g\	1	.
.	.	.	12gg\J	5	.
16B-/Jk	.	2	.	.	.
4e-^</	.	1	12b-/L	2	.
.	.	.	12g/	1	.
.	.	.	12b-/J	3	.
4d/	.	-	12a-/L	2	.
.	.	.	12f/	1	.
.	.	.	12b-/J	5	.
=2	=2	=2	=2	=2	=2
4r	1E-	.	12e-/L	.	.
.	.	.	12g/	.	.
.	.	.	12b-/J	.	.
8.G/L	.	.	12bb-\L	.	.
.	.	.	12g\	.	.
.	.	.	12gg\J	.	.
16B-/Jk	.	.	.	.	.
4e-^</	.	.	12b-/L	.	.
.	.	.	12g/	.	.
.	.	.	12b-/J	.	.
4d/	.	.	12a-/L	.	.
.	.	.	12f/	.	.
.	.	.	12b-/J	4	.
=3	=3	=3	=3	=3	=3
4r	2E-\	.	12g/L	2	.
.	.	.	12e-/	1	.
.	.	.	12b-/J	4	.
8.c-X^/L	.	.	12a-/L	3	.
.	.	.	12f/	1	.
.	.	.	12b-/J	4	.
16B-/Jk	.	.	.	.	.
4r	2E-\	.	12g/L	.	.
.	.	.	12e-/	.	.
.	.	.	12b-/J	.	.
8.c-^/L	.	.	12a-/L	.	.
.	.	.	12f/	.	.
.	.	.	12b-/J	.	.
16B-/Jk	.	.	.	.	.
!!LO:LB:g=original
=4	=4	=4	=4	=4	=4
4r	2E-\	.	12e-/L	2	.
.	.	.	12g/	1	.
.	.	.	12b-/J	2	.
4G/ 4B- 4e-	.	.	12bb-\L	5	sf
.	.	.	12g\	1	.
.	.	.	12gg\J	5	.
4r	2E-\	.	12en/L	.	.
.	.	.	12g/	.	.
.	.	.	12b-/J	.	.
4G/ 4B- 4en	.	.	12ccc\L	.	sf
.	.	.	12b-\	.	.
.	.	.	12ccc\J	.	.
=5	=5	=5	=5	=5	=5
4r	1F	.	12a-\L	.	.
.	.	.	12cc\	.	.
.	.	.	12ff\J	.	.
8.A-/L	.	.	12ccc\L	.	.
.	.	.	12a-\	.	.
.	.	.	12aa-\J	.	.
16c/Jk	.	.	.	.	.
4f^/	.	.	12cc/L	.	.
.	.	.	12a-/	.	.
.	.	.	12cc/J	.	.
4en/	.	.	12b-/L	.	.
.	.	.	12g/	.	.
.	.	.	12cc/J	.	.
=6	=6	=6	=6	=6	=6
4r	1F	.	12a-\L	.	.
.	.	.	12cc\	.	.
.	.	.	12ff\J	.	.
8.A-/L	.	.	12ccc\L	.	.
.	.	.	12a-\	.	.
.	.	.	12aa-\J	.	.
16c/Jk	.	.	.	.	.
4f^/	.	.	12cc/L	.	.
.	.	.	12a-/	.	.
.	.	.	12cc/J	.	.
4en/	.	.	12b-\L	.	.
.	.	.	12g\	.	.
.	.	.	12ccc\J	.	.
*v	*v	*	*	*	*
=7	=7	=7	=7	=7
*	*	*tuplet	*	*
!	!	!LO:TX:a:t=problem:3 pod klamrą łukową	!	!
8qF/	.	.	.	.
!	!	!LO:TUP:a	!	!
4f\	.	12ff\L 12aa-	.	.
.	.	12cc\	.	.
.	.	12ccc\J	.	.
8qC/	.	.	.	.
*	*	*Xtuplet	*	*
4en\	.	12gg\L 12bb-	.	.
.	.	12cc\	.	.
.	.	12ccc\J	.	.
8qC/	.	.	.	.
4f\	.	12ff\L 12aa-	.	.
.	.	12cc\	.	.
.	.	12ccc\J	.	.
8qBB-/	.	.	.	.
4d\	.	12ff\L 12aa-	.	rf
.	.	12b-\	.	.
.	.	12bb-\J	.	.
!!LO:LB:g=original
=8	=8	=8	=8	=8
8qBB-/	.	.	.	.
4e-\	.	12ee-\L 12gg	.	.
.	.	12b-\	.	.
.	.	12bb-\J	.	.
8qBB-/	.	.	.	.
4d\	.	12ff\L 12aa-	.	.
.	.	12b-\	.	.
.	.	12bb-\J	.	.
8qBB-/	.	.	.	.
4e-\	.	12ee-\L 12gg	.	.
.	.	12b-\	.	.
.	.	12bb-\J	.	.
8qBBn/	.	.	.	.
4d\	.	12dd\L 12ff	.	rf
.	.	12g\	.	.
.	.	12gg\J	.	.
=9	=9	=9	=9	=9
8qC/	.	.	.	.
4c\	.	12cc\L 12ee-	.	.
.	.	12g\	.	.
.	.	12gg\J	.	.
8qAAn/	.	.	.	.
4c\	.	12cc\L 12ee-	.	.
.	.	12f\	.	.
.	.	12ff\J	.	.
8qBB-/	.	.	.	.
4B-\	.	12b-\L 12dd	.	.
.	.	12f\	.	.
.	.	12ff\J	.	.
8qEE-/	.	.	.	rfz
4E-\	.	12e-/L 12g	.	.
.	.	12c/	.	.
.	.	12cc/J	.	.
=10	=10	=10	=10	=10
*^	*	*	*	*
*Xtuplet	*	*	*tuplet	*	*
!	!	!	!LO:TUP:b	!	!
!	!	!	!LO:TX:a:t=problem: 3 pod klamrą łukową	!	!
4r	2FF\	.	12B-/L	.	.
.	.	.	12d/	.	.
.	.	.	12f/J	.	.
12r	.	.	4ff\	.	.
12G-X^</L	.	2	.	.	.
12F/J	.	1	.	.	.
!	!	!	!LO:TUP:b	!	!
!	!	!	!LO:TX:a:t=problem: 3 pod klamrą łukową	!	!
4r	2FF\	.	12A-/L	.	.
.	.	.	12c/	.	.
.	.	.	12e-/J	.	.
12r	.	.	4ff\	.	.
12G-X^</L	.	.	.	.	.
12F/J	.	.	.	.	.
=11	=11	=11	=11	=11	=11
*	*	*	*Xtuplet	*	*
4r	1BB-	.	12B-/L	.	.
.	.	.	12d/	.	.
.	.	.	12f/J	.	.
!	!	!	!LO:TX:a:t=problem:mixed beam	!	!
8.D/L	.	.	12ff\L	.	.
.	.	.	12d/	.	.
.	.	.	12dd\J	.	.
16F/Jk	.	.	.	.	.
4B-/	.	.	12f/L	.	.
.	.	.	12d/	.	.
.	.	.	12f/J	.	.
4An/	.	.	12e-/L	.	.
.	.	.	12c/	.	.
.	.	.	12f/J	.	.
=12	=12	=12	=12	=12	=12
4r	1BB-	.	12B-/L	.	.
.	.	.	12d/	.	.
.	.	.	12f/J	.	.
!	!	!	!LO:TX:a:t=problem:mixed beam	!	!
8.D/L	.	.	12ff\L	.	.
.	.	.	12d/	.	.
.	.	.	12dd\J	.	.
16F/Jk	.	.	.	.	.
4B-/	.	.	12f/L	.	.
.	.	.	12d/	.	.
.	.	.	12f/J	.	.
4An/	.	.	12e-/L	.	.
.	.	.	12c/	.	.
.	.	.	12f/J	.	.
!!LO:LB:g=original
=13	=13	=13	=13	=13	=13
4r	2BB-\	.	12d/L	.	.
.	.	.	12B-/	.	.
.	.	.	12f/J	.	.
8.G-X^/L	.	.	12e-/L	.	.
.	.	.	12c/	.	.
.	.	.	12f/J	.	.
16F/Jk	.	.	.	.	.
4r	2BB-\	.	12d/L	.	.
.	.	.	12B-/	.	.
.	.	.	12f/J	.	.
8.G-^/L	.	.	12e-/L	.	.
.	.	.	12c/	.	.
.	.	.	12f/J	.	.
16F/Jk	.	.	.	.	.
=14	=14	=14	=14	=14	=14
4r	2BB-\	.	12B-/L	.	.
.	.	.	12d/	.	.
.	.	.	12f/J	.	.
!	!	!	!LO:TX:a:t=problem:mixed beam	!	!
4D/ 4F 4B-	.	.	12ff\L	.	.
.	.	.	12d/	.	.
.	.	.	12ff\J	.	.
4r	2GG\	.	12Bn/L	.	f
.	.	.	12d/	.	.
.	.	.	12f/J	.	.
!	!	!	!LO:TX:a:t=problem:mixed beam	!	!
4D/ 4G 4Bn	.	.	12gg\L	.	.
.	.	.	12f/	.	.
.	.	.	12gg\J	.	.
=15	=15	=15	=15	=15	=15
4r	1C	.	12e-/L	.	.
.	.	.	12g/	.	.
.	.	.	12cc/J	.	.
!	!	!	!LO:TX:a:t=problem:mixed beam	!	!
8.E-/L	.	.	12gg\L	.	.
.	.	.	12e-/	.	.
.	.	.	12ee-\J	.	.
16G/Jk	.	.	.	.	.
4c/	.	.	12g/L	.	.
.	.	.	12e-/	.	.
.	.	.	12g/J	.	.
4Bn/	.	.	12f/L	.	.
.	.	.	12d/	.	.
.	.	.	12g/J	.	.
=16	=16	=16	=16	=16	=16
4r	1C	.	12e-/L	.	.
.	.	.	12g/	.	.
.	.	.	12cc/J	.	.
!	!	!	!LO:TX:a:t=problem:mixed beam	!	!
8.E-/L	.	.	12gg\L	.	.
.	.	.	12e-/	.	.
.	.	.	12ee-\J	.	.
16G/Jk	.	.	.	.	.
4c/	.	.	12g/L	.	.
.	.	.	12e-/	.	.
.	.	.	12g/J	.	.
!	!	!	!LO:TX:a:t=problem:mixed beam	!	!
4Bn/	.	.	12f/L	.	.
.	.	.	12d/	.	.
.	.	.	12gg\J	.	.
*v	*v	*	*	*	*
!!LO:LB:g=original
=17	=17	=17	=17	=17
8qC/	.	.	.	.
4c\	.	12cc\L 12ee-	.	.
.	.	12g\	.	.
.	.	12gg\J	.	.
8qGG/	.	.	.	.
4Bn^\	.	12dd\L 12ff	.	.
.	.	12g\	.	.
.	.	12gg\J	.	.
8qGG/	.	.	.	.
4c\	.	12cc\L 12ee-	.	.
.	.	12g\	.	.
.	.	12gg\J	.	.
8qGG/	.	.	.	.
4Bn^\	.	12dd\L 12ff	.	.
.	.	12g\	.	.
.	.	12gg\J	.	.
=18	=18	=18	=18	=18
8qGG/	.	.	.	.
4c\	.	12cc\L 12ee-	.	.
.	.	12g\	.	.
.	.	12gg\J	.	.
8qAAn/	.	.	.	.
4c\	.	12cc\L 12ee-	.	.
.	.	12f\	.	.
.	.	12ff\J	.	.
!	!	!LO:TX:b:i:t=cresc.	!	!
!	!	!LO:TX:b:i:t=crescendo	!	!
8qBB-/	.	.	.	.
4B-X\	.	12b-\L 12dd	.	.
.	.	12f\	.	.
.	.	12ff\J	.	.
8qGG/	.	.	.	.
4B-\	.	12b-\L 12dd	.	.
.	.	12e-\	.	.
.	.	12ee-\J	.	.
=19	=19	=19	=19	=19
8qAAn/	.	.	.	.
4An\	.	12an/L 12cc	.	.
.	.	12e-/	.	.
.	.	12ee-/J	.	.
8qFF#X/	.	.	.	.
4A\	.	12a/L 12cc	.	.
.	.	12d/	.	.
.	.	12dd/J	.	.
8qGG/	.	.	.	.
4G\	.	12g/L 12b-	.	.
.	.	12d/	.	.
.	.	12dd/J	.	.
8qEEn/	.	.	.	.
4En\	.	12g/L 12b-	.	.
.	.	12c/	.	.
.	.	12cc/J	.	.
=20	=20	=20	=20	=20
*^	*	*	*	*
4r	1FF	.	12f/L	2	ff
.	.	.	12an/	1	.
.	.	.	12cc/J	2	.
8.AAn/L	.	.	12ccc\L	5	.
.	.	.	12an\	1	.
!	!	!	!LO:TX:a:t=sic:s=8aan	!	!
.	.	.	12aa-\J	5	.
16C/Jk	.	.	.	.	.
4F/	.	.	12cc/L	2	.
.	.	.	12a/	1	.
.	.	.	12cc/J	3	.
4En/	.	.	12b-/L	2	.
.	.	.	12g/	1	.
.	.	.	12cc/J	5	.
=21	=21	=21	=21	=21	=21
4r	1FF	.	12f/L	.	.
.	.	.	12an/	.	.
.	.	.	12cc/J	.	.
8.AAn/L	.	.	12ccc\L	.	.
.	.	.	12a\	.	.
!	!	!	!LO:TX:a:t=sic:s=8aan	!	!
.	.	.	12aa-\J	.	.
16C/Jk	.	.	.	.	.
4F/	.	.	12cc/L	.	.
.	.	.	12a/	.	.
.	.	.	12cc/J	.	.
4En/	.	.	12b-/L	.	.
.	.	.	12g/	.	.
.	.	.	12cc/J	.	.
*v	*v	*	*	*	*
!!LO:LB:g=original
=22	=22	=22	=22	=22
8qFF/	.	.	.	.
4F\	.	12f/L 12an	.	.
.	.	12c/	.	.
.	.	12cc/J	.	.
8qCC/	.	.	.	.
4En\	.	12g/L 12b-	.	.
.	.	12c/	.	.
.	.	12cc/J	.	.
8qCC/	.	.	.	.
4F\	.	12f/L 12a	.	.
.	.	12c/	.	.
.	.	12cc/J	.	.
8qCC/	.	.	.	.
4E\	.	12g/L 12b-	.	.
.	.	12c/	.	.
.	.	12cc/J	.	.
=23	=23	=23	=23	=23
8qCC/	.	.	.	.
!	!	!	!	!LO:HP:t=dim
4F\	.	12f/L 12a-X	.	>
.	.	12c/	.	.
.	.	12cc/J	.	.
8qCC/	.	.	.	.
4En\	.	12g/L 12b-	.	.
.	.	12c/	.	.
.	.	12cc/J	.	.
8qCC/	.	.	.	.
4F\	.	12f/L 12a-	.	.
.	.	12c/	.	.
.	.	12cc/J	.	.
8qCC/	.	.	.	.
4E\	.	12g/L 12b-	.	.
.	.	12c/	.	.
.	.	12cc/J	.	.
=24	=24	=24	=24	=24
2F\	.	12f/L 12a-	.	<
.	.	12c/	.	.
.	.	12cc/J	.	.
.	.	12f/L 12a-	.	.
.	.	12c/	.	.
.	.	12cc/J	.	.
2FF/	.	12f/L 12a-	.	.
.	.	12d-X/	.	.
.	.	12dd-X/J	.	.
.	.	12f/L 12a-	.	.
.	.	12d-/	.	.
.	.	12dd-/J	.	[
=25	=25	=25	=25	=25
2GG-X/	.	12g-X/L 12b-	.	>
.	.	12d/	.	.
.	.	12dd-X/J	.	.
.	.	12g-/L 12b-	.	.
.	.	12d/	.	.
.	.	12dd-/J	.	.
2GGn/	.	12en/L 12b-	.	.
.	.	12d/	.	.
.	.	12dd-/J	.	.
.	.	12e/L 12b-	.	.
.	.	12d/	.	.
.	.	12dd-/J	.	]
!!LO:PB:g=original
=26	=26	=26	=26	=26
*^	*	*	*	*
4r	2AA-\	.	12d-X/L	.	.
.	.	.	12f/	.	.
.	.	.	12a-/J	.	.
12r	.	.	4aa-^\	.	.
12B--^/L	.	.	.	.	.
12A-/J	.	.	.	.	.
4r	2AA-\	.	12c/L	.	.
.	.	.	12e-/	.	.
.	.	.	12g-X/J	.	.
12r	.	.	4aa-^\	.	.
12B--^/L	.	.	.	.	.
12A-/J	.	.	.	.	.
=27	=27	=27	=27	=27	=27
4r	1D-X	.	12d-X/L	.	f
.	.	.	12f/	.	.
.	.	.	12a-/J	.	.
!	!	!	!LO:TX:a:t=problem:mixed beam	!	!
8.F/L	.	.	12aa-\L	.	.
.	.	.	12f/	.	.
.	.	.	12ff\J	.	.
16A-/Jk	.	.	.	.	.
4d-X/	.	.	12a-/L	.	.
.	.	.	12f/	.	.
.	.	.	12a-/J	.	.
4c/	.	.	12g-X/L	.	.
.	.	.	12e-/	.	.
.	.	.	12a-/J	.	.
=28	=28	=28	=28	=28	=28
4r	1D-X	.	12d-X/L	.	.
.	.	.	12f/	.	.
.	.	.	12a-/J	.	.
!	!	!	!LO:TX:a:t=problem:mixed beam	!	!
8.F/L	.	.	12aa-\L	.	.
.	.	.	12f/	.	.
.	.	.	12ff\J	.	.
16A-/Jk	.	.	.	.	.
4d-X/	.	.	12a-/L	.	.
.	.	.	12f/	.	.
.	.	.	12a-/J	.	.
4c/	.	.	12g-X/L	.	.
.	.	.	12e-/	.	.
.	.	.	12a-/J	.	.
=29	=29	=29	=29	=29	=29
4r	2D-X\	.	12f/L	.	.
.	.	.	12d-X/	.	.
.	.	.	12a-/J	.	.
8.B--/L	.	.	12g-X/L	.	.
.	.	.	12e-/	.	.
.	.	.	12a-/J	.	.
16A-/Jk	.	.	.	.	.
4r	2D-\	.	12f/L	.	.
.	.	.	12d-/	.	.
.	.	.	12a-/J	.	.
8.B--/L	.	.	12g-/L	.	.
.	.	.	12e-/	.	.
.	.	.	12a-/J	.	.
16A-/Jk	.	.	.	.	.
!!LO:LB:g=original
=30	=30	=30	=30	=30	=30
4r	2D-X\	.	12d-X/L	2	.
.	.	.	12f/	1	.
.	.	.	12a-/J	2	.
!	!	!	!LO:TX:a:t=problem:mixed beam	!	!
4F/ 4A- 4d-X	.	.	12aa-\L	5	.
.	.	.	12f/	.	.
.	.	.	12aa-\J	.	.
4r	2BB-\	.	12dn/L	.	.
.	.	.	12f/	.	.
.	.	.	12a-/J	.	.
!	!	!	!LO:TX:a:t=problem:mixed beam	!	!
4F/ 4A- 4dn	.	.	12bb-\L	.	.
.	.	.	12a-/	.	.
.	.	.	12bb-\J	.	.
*v	*v	*	*	*	*
=31	=31	=31	=31	=31
4E-\	.	12e-/L	2	p
.	.	12g-X/	1	.
.	.	12b-/J	2	.
!	!	!LO:TX:a:t=problem:mixed beam	!	!
8.G-X\L	.	12bb-\L	5	.
.	.	12g-X\	1	.
.	.	12gg-X\J	5	.
16B-\Jk	.	.	.	.
8e-\	.	12b-\L	2	.
.	.	12g-\	1	.
8r	.	.	.	.
.	.	12ee-\J	4	.
4F\ 4c 4e-	.	12an\L	2	f
.	.	12f\	5	.
.	.	12ff\J	1	.
*clefG2	*	*	*	*
=32	=32	=32	=32	=32
4B-/	.	12b-\L	2	p
.	.	12dd-X\	3	.
.	.	12ff\J	1	.
8.d-X/L	.	12fff\L	5	.
.	.	12ff\	1	.
.	.	12ddd-X\J	4	.
16f/Jk	.	.	.	.
8b-`\	.	12bb-\L	2	.
.	.	12ff\	1	.
8r	.	.	.	.
.	.	12ddd-\J	4	.
4G/ 4d- 4f	.	12bbn\L	2	f
.	.	12gg\	1	.
.	.	12ggg\J	5	.
=33	=33	=33	=33	=33
4c/	.	12ee-\L	.	p
.	.	12gg\	.	.
.	.	12ccc\J	.	.
8.e-/L	.	12ggg\L	.	.
.	.	12gg\	.	.
.	.	12eee-\J	.	.
16g/Jk	.	.	.	.
8cc\	.	12ccc\L	.	.
.	.	12gg\	.	.
8r	.	.	.	.
.	.	12ggg\J	.	.
*	*	*8va	*	*
!	!	!LO:TX:a:t=8va	!	!
4b-\ 4ff 4aa-	.	12ddd\L	.	f
.	.	12bb-\	.	.
!	!	!LO:TX:a:t=problem:zygzakowata linia	!	!
.	.	12bbb-\J	.	.
=34	=34	=34	=34	=34
8ee-\ 8gg	.	12eee-\L 12ggg	.	.
.	.	12bb-\	.	.
8r	.	.	.	.
.	.	12bbb-\J	.	.
*clefF4	*	*	*	*
8qBB-/	.	.	.	.
4d\	.	12fff\L 12aaa-	.	.
.	.	12bb-\	.	.
.	.	12bbb-\J	.	.
8qBB-/	.	.	.	.
!!LO:LB:g=original
4e-\	.	12eee-\L 12ggg	.	.
.	.	12bb-\	.	.
.	.	12bbb-\J	.	.
8qBB-/	.	.	.	.
4d\	.	12fff\L 12aaa-	.	.
.	.	12bb-\	.	.
.	.	12bbb-\J	.	.
=35	=35	=35	=35	=35
8qC/	.	.	.	.
4e-\	.	12eee-\L 12ggg	.	.
.	.	12bb-\	.	.
.	.	12bbb-\J	.	.
8qBBn/	.	.	.	.
4d^\	.	12ddd\L 12fff	.	.
.	.	12gg\	.	.
.	.	12ggg\J	.	.
8qC/	.	.	.	.
4e-\	.	12ccc\L 12eee-	.	.
.	.	12gg\	.	.
.	.	12ggg\J	.	.
8qAAn/	.	.	.	.
4c^\	.	12ccc\L 12eee-	.	.
.	.	12ff\	.	.
.	.	12fff\J	.	.
=36	=36	=36	=36	=36
*^	*	*	*	*
4r	2BB-\	.	12ee-/L	.	.
.	.	.	12gg/	.	.
.	.	.	12bb-/J	.	.
12r	.	.	4bbb-\	.	.
12c^/L	.	.	.	.	.
12B-/J	.	.	.	.	.
4r	2BB-\	.	12dd/L	.	.
.	.	.	12ff/	.	.
.	.	.	12aa-/J	.	.
12r	.	.	4bbb-\	.	.
12c-X^/L	.	.	.	.	.
12B-/J	.	.	.	.	.
*	*	*	*X8va	*	*
=37	=37	=37	=37	=37	=37
!	!	!	!LO:TX:a:t=loco	!	!
4r	1E-	.	12e-/L	.	p
.	.	.	12g/	.	.
.	.	.	12b-/J	.	.
!	!	!	!LO:TX:a:t=problem:mixed beam	!	!
8.G/L	.	.	12bb-\L	.	.
.	.	.	12g/	.	.
.	.	.	12gg\J	.	.
16B-/Jk	.	.	.	.	.
4e-/	.	.	12b-/L	.	.
.	.	.	12g/	.	.
.	.	.	12b-/J	.	.
4d/	.	.	12a-/L	.	.
.	.	.	12f/	.	.
.	.	.	12b-/J	.	.
=38	=38	=38	=38	=38	=38
4r	1E-	.	12e-/L	.	.
.	.	.	12g/	.	.
.	.	.	12b-/J	.	.
!	!	!	!LO:TX:a:t=problem:mixed beam	!	!
8.G/L	.	.	12bb-\L	.	.
.	.	.	12g/	.	.
.	.	.	12gg\J	.	.
16B-/Jk	.	.	.	.	.
4e-/	.	.	12b-/L	.	.
.	.	.	12g/	.	.
.	.	.	12b-/J	.	.
4d/	.	.	12a-/L	.	.
.	.	.	12f/	.	.
.	.	.	12b-/J	.	.
=39	=39	=39	=39	=39	=39
4r	2E-\	.	12g/L	.	.
.	.	.	12e-/	.	.
.	.	.	12b-/J	.	.
8.c-X/L	.	.	12a-/L	.	.
.	.	.	12f/	.	.
.	.	.	12b-/J	.	.
!!LO:LB:g=original
16B-/Jk	.	.	.	.	.
4r	2E-\	.	12g/L	.	.
.	.	.	12e-/	.	.
.	.	.	12b-/J	.	.
8.c-X/L	.	.	12a-/L	.	.
.	.	.	12f/	.	.
.	.	.	12b-/J	.	.
16B-/Jk	.	.	.	.	.
=40	=40	=40	=40	=40	=40
4r	2E-\	.	12e-/L	.	<
.	.	.	12g/	.	.
.	.	.	12b-/J	.	.
!	!	!	!LO:TX:a:t=problem:mixed beam	!	!
4G/ 4B- 4e-	.	.	12bb-\L	.	.
.	.	.	12g/	.	.
.	.	.	12bb-\J	.	.
4r	2C\	.	12en/L	.	.
.	.	.	12g/	.	.
.	.	.	12b-/J	.	.
4G/ 4B- 4en	.	.	12ccc\L	.	.
.	.	.	12b-\	.	.
.	.	.	12ccc\J	.	[
=41	=41	=41	=41	=41	=41
4r	1F	.	12a-/L	.	.
.	.	.	12cc/	.	.
.	.	.	12ff/J	.	.
!	!	!	!LO:TX:a:t=problem:mixed beam	!	!
8.A-/L	.	.	12ccc\L	.	.
.	.	.	12a-/	.	.
.	.	.	12aa-\J	.	.
16c/Jk	.	.	.	.	.
4f/	.	.	12cc/L	.	.
.	.	.	12a-/	.	.
.	.	.	12cc/J	.	.
4en/	.	.	12b-/L	.	.
.	.	.	12g/	.	.
.	.	.	12cc/J	.	.
=42	=42	=42	=42	=42	=42
4r	1F	.	12a-/L	.	.
.	.	.	12cc/	.	.
.	.	.	12ff/J	.	.
!	!	!	!LO:TX:a:t=problem:mixed beam	!	!
8.A-/L	.	.	12ccc\L	.	.
.	.	.	12a-/	.	.
.	.	.	12aa-\J	.	.
16c/Jk	.	.	.	.	.
4f/	.	.	12cc/L	.	.
.	.	.	12a-/	.	.
.	.	.	12cc/J	.	.
!	!	!	!LO:TX:a:t=problem:mixed beam	!	!
4en/	.	.	12b-/L	.	.
.	.	.	12g/	.	.
.	.	.	12ccc\J	.	.
*v	*v	*	*	*	*
=43	=43	=43	=43	=43
8qF/	.	.	.	.
4f\	.	12ff\L 12aa-	.	.
.	.	12cc\	.	.
.	.	12ccc\J	.	.
8qC/	.	.	.	.
4en\	.	12gg\L 12bb-	.	.
.	.	12cc\	.	.
.	.	12ccc\J	.	.
8qC/	.	.	.	.
4f\	.	12ff\L 12aa-	.	.
.	.	12cc\	.	.
.	.	12ccc\J	.	.
8qBB-/	.	.	.	.
4d\	.	12ff\L 12aa-	.	.
.	.	12b-\	.	.
.	.	12bb-\J	.	.
!!LO:LB:g=original
=44	=44	=44	=44	=44
8qBB-/	.	.	.	.
4e-X\	.	12ee-\L 12gg	.	<
.	.	12b-\	.	.
.	.	12bb-\J	.	.
8qBB/	.	.	.	.
4d\	.	12dd\L 12ff	.	.
.	.	12g\	.	.
.	.	12gg\J	.	.
8qC/	.	.	.	.
4c\	.	12cc\L 12ee-	.	.
.	.	12g\	.	.
.	.	12gg\J	.	.
8qAA/	.	.	.	.
4c\	.	12cc\L 12ee-	.	.
.	.	12f\	.	.
.	.	12ff\J	.	[
=45	=45	=45	=45	=45
*^	*	*	*	*
4r	2BB-\	.	12e-/L	.	f
.	.	.	12g/	.	.
.	.	.	12b-/J	.	.
12r	.	.	4bb-\	.	.
12c-X/L	.	.	.	.	.
12B-/J	.	.	.	.	.
4r	2BB-\	.	12d/L	.	.
.	.	.	12f/	.	.
.	.	.	12a-/J	.	.
12r	.	.	4bb-\	.	.
12c-X/L	.	.	.	.	.
12B-/J	.	.	.	.	.
=46	=46	=46	=46	=46	=46
4r	1E-	.	12e-/L	.	.
.	.	.	12g/	.	.
.	.	.	12b-/J	.	.
!	!	!	!LO:TX:a:t=problem:mixed beam	!	!
8.G/L	.	.	12bb-\L	.	p
.	.	.	12g/	.	.
.	.	.	12gg\J	.	.
16B-/Jk	.	.	.	.	.
4e-/	.	.	12b-/L	.	.
.	.	.	12g/	.	.
.	.	.	12b-/J	.	.
4d/	.	.	12a-/L	.	.
.	.	.	12f/	.	.
.	.	.	12b-/J	5	.
=47	=47	=47	=47	=47	=47
4r	1E-	.	12e-/L	.	.
.	.	.	12g/	.	.
.	.	.	12b-/J	.	.
!	!	!	!LO:TX:a:t=problem:mixed beam	!	!
8.G/L	.	.	12bb-\L	.	.
.	.	.	12g/	.	.
.	.	.	12gg\J	.	.
16B-/Jk	.	.	.	.	.
4e-/	.	.	12b-/L	.	.
.	.	.	12g/	.	.
.	.	.	12b-/J	.	.
4d/	.	.	12a-/L	.	.
.	.	.	12f/	.	.
.	.	.	12b-/J	4	.
!!LO:LB:g=original
=48	=48	=48	=48	=48	=48
4r	2E-\	.	12g/L	2	.
.	.	.	12e-/	1	.
.	.	.	12b-/J	4	.
!	!	!	!LO:TX:b:i:t=per---------------den------------------------do--------------si.	!	!
8.c-X/L	.	.	12a-/L	3	.
.	.	.	12f/	1	.
!	!	!	!LO:TX:a:t=problem&colon; łamanie w takcie	!	!
.	.	.	12b-/J	4	.
!	!	!	!LO:TX:a:t=problem&colon; łamanie w takcie	!	!
16B-/Jk	.	.	.	.	.
4r	2E-\	.	12g/L	.	.
.	.	.	12e-/	.	.
.	.	.	12b-/J	.	.
8.c-/L	.	.	12a-/L	.	.
.	.	.	12f/	.	.
.	.	.	12b-/J	.	.
16B-/Jk	.	.	.	.	.
*v	*v	*	*	*	*
=49	=49	=49	=49	=49
2E-\	.	12e-/L	2	.
.	.	12g/	1	.
.	.	12b-/J	2	.
.	.	12ff#X\L	4	.
.	.	12gg\	5	.
.	.	12dd\J	2	.
2r	.	12ee-\L	3	.
.	.	12an\	2	.
.	.	12b-\J	3	.
.	.	12f#X/L	2	.
.	.	12g/	3	.
.	.	12d/J	2	.
=50	=50	=50	=50	=50
4r	.	(12e-/L	3	.
.	.	12An/	.	.
.	.	12B-/J)	.	.
12F#X^^</L	.	4ryy	.	.
(12G/	.	.	.	.
12D/J)	.	.	.	.
12E-^^</L	.	4ryy	.	.
(12AAn/	.	.	.	.
12BB-/J)	.	.	.	.
12FF#X^^</L	.	4ryy	.	.
(<12GG/J	.	.	.	.
12DD\)	.	.	.	.
=51	=51	=51	=51	=51
!LO:TX:b:t=3 0 4 3	!	!	!	!
1EE-;<	.	1r;	.	.
==	==	==	==	==
*-	*-	*-	*-	*-
!!!system-decoration: {(s1,s2)}
!!!RDF**kern: >= above
!!!RDF**kern: <= below
!!!ENC: Anna Matuszewska
!!!END: 2020-07-20
